.local/share/icons/Gruvbox-Plus-Dark/emotes/symbolic/face-confused-symbolic.svg

<svg width="16" height="16" version="1.1" xmlns="http://www.w3.org/2000/svg">
  <defs>
    <style type="text/css" id="current-color-scheme">.ColorScheme-Text { color:#ebdbb2; } .ColorScheme-Highlight { color:#458588; }</style>
  </defs>
  <path class="ColorScheme-Text" fill="currentColor" d="m8 1c-3.87 0-7 3.13-7 7 0 3.86 3.13 7 7 7s7-3.14 7-7c0-3.87-3.13-7-7-7zm-3 4c0.55 0 1 0.45 1 1s-0.45 1-1 1-1-0.45-1-1 0.45-1 1-1zm6 0c0.55 0 1 0.45 1 1s-0.45 1-1 1-1-0.45-1-1 0.45-1 1-1zm-4.94 4.5c0.76-0.1 1.61 0.19 2.38 0.96 0.58 0.59 0.98 0.65 1.37 0.6 0.39-0.06 0.82-0.3 1.22-0.63 0.62-0.79 1.64 0.45 0.75 0.91-0.47 0.39-1.06 0.8-1.81 0.91-0.76 0.1-1.63-0.17-2.41-0.94-0.59-0.59-0.96-0.68-1.34-0.63s-0.83 0.31-1.25 0.66c-0.62 0.79-1.64-0.45-0.75-0.91 0.49-0.4 1.09-0.83 1.84-0.93z"/>
</svg>

<svg xmlns="http://www.w3.org/2000/svg" width="16" height="16" version="1.1">
 <path style="fill:#ebdbb2" d="M 8,1 C 4.13,1 1,4.13 1,8 1,11.86 4.13,15 8,15 11.87,15 15,11.86 15,8 15,4.13 11.87,1 8,1 Z M 5,5 C 5.55,5 6,5.45 6,6 6,6.55 5.55,7 5,7 4.45,7 4,6.55 4,6 4,5.45 4.45,5 5,5 Z M 11,5 C 11.55,5 12,5.45 12,6 12,6.55 11.55,7 11,7 10.45,7 10,6.55 10,6 10,5.45 10.45,5 11,5 Z M 6.06,9.5 C 6.82,9.4 7.67,9.69 8.44,10.46 9.02,11.05 9.42,11.11 9.81,11.06 10.2,11 10.63,10.76 11.03,10.43 11.65,9.64 12.67,10.88 11.78,11.34 11.31,11.73 10.72,12.14 9.97,12.25 9.21,12.35 8.34,12.08 7.56,11.31 6.97,10.72 6.6,10.63 6.22,10.68 5.84,10.73 5.39,10.99 4.97,11.34 4.35,12.13 3.33,10.89 4.22,10.43 4.71,10.03 5.31,9.6 6.06,9.5 Z"/>
</svg>
